X:152
T:Mary McKay's Hornpipe
C:Terence "Cuz" Teahan
B:Terry "Cuz" Teahan "Sliabh Luachra on Parade" 1980
Z:Patrick Cavanagh
M:4/4
L:1/8
R:Hornpipe
K:D
| fedf edBc | B/c/d AF GFED | Beef afgf | gfed BdAF | 
gfed f/e/d Bc | B/c/d AF GFED | Beef afgf | gfed Bee2 | 
|: dB c/B/A FEFA | B/c/d BG AGBd | geaf gbag | fded BdAF :| 

